src/home/img/benefit-sai.svg

<svg height="80" viewBox="0 0 80 80" width="80" xmlns="http://www.w3.org/2000/svg" xmlns:xlink="http://www.w3.org/1999/xlink"><linearGradient id="a" x1="50%" x2="50%" y1="0%" y2="100%"><stop offset="0" stop-color="#3f6abc"/><stop offset="1" stop-color="#1851be"/></linearGradient><filter id="b" height="110.6%" width="110.6%" x="-5.3%" y="-5.3%"><feGaussianBlur in="SourceGraphic" stdDeviation="1.05"/></filter><linearGradient id="c"><stop offset="0" stop-color="#fff"/><stop offset="1" stop-color="#aec3eb"/></linearGradient><radialGradient id="d" cx="55.954%" cy="0%" gradientTransform="matrix(0 1 -.88567 0 .56 -.56)" r="116.607%" xlink:href="#c"/><filter id="e" height="107.8%" width="106.9%" x="-3.5%" y="-3.9%"><feGaussianBlur in="SourceGraphic" stdDeviation=".65"/></filter><radialGradient id="f" cx="55.954%" cy="0%" gradientTransform="matrix(0 1 -.50386 0 .56 -.56)" r="315.185%" xlink:href="#c"/><filter id="g" height="125.3%" width="112.7%" x="-6.4%" y="-12.6%"><feGaussianBlur in="SourceGraphic" stdDeviation=".65"/></filter><mask id="h" fill="#fff"><path d="m.5 13.84c0-7.367 5.973-13.34 13.34-13.34h48.32c7.367 0 13.34 5.973 13.34 13.34v48.32c0 7.367-5.973 13.34-13.34 13.34h-48.32c-7.367 0-13.34-5.973-13.34-13.34z" fill="#fff" fill-rule="evenodd"/></mask><g fill="none" fill-rule="evenodd" transform="translate(2 2)"><path d="m.5 13.84c0-7.367 5.973-13.34 13.34-13.34h48.32c7.367 0 13.34 5.973 13.34 13.34v48.32c0 7.367-5.973 13.34-13.34 13.34h-48.32c-7.367 0-13.34-5.973-13.34-13.34z" mask="url(#h)"/><path d="m.5 13.84c0-7.367 5.973-13.34 13.34-13.34h48.32c7.367 0 13.34 5.973 13.34 13.34v48.32c0 7.367-5.973 13.34-13.34 13.34h-48.32c-7.367 0-13.34-5.973-13.34-13.34z"/><path d="m.5 13.84c0-7.367 5.973-13.34 13.34-13.34h48.32c7.367 0 13.34 5.973 13.34 13.34v48.32c0 7.367-5.973 13.34-13.34 13.34h-48.32c-7.367 0-13.34-5.973-13.34-13.34z"/><g fill-rule="nonzero"><path d="m.5 13.84c0-7.367 5.973-13.34 13.34-13.34h48.32c7.367 0 13.34 5.973 13.34 13.34v48.32c0 7.367-5.973 13.34-13.34 13.34h-48.32c-7.367 0-13.34-5.973-13.34-13.34z" fill="url(#a)" filter="url(#b)" stroke="#fff" stroke-opacity=".01" stroke-width="1.68"/><path d="m.5 13.84c0-7.367 5.973-13.34 13.34-13.34h48.32c7.367 0 13.34 5.973 13.34 13.34v48.32c0 7.367-5.973 13.34-13.34 13.34h-48.32c-7.367 0-13.34-5.973-13.34-13.34z" fill="url(#a)" stroke="#fff" stroke-opacity=".01" stroke-width="1.68"/><g transform="translate(10 13)"><path d="m9.24242424 12.5c3.40296666 0 6.16161616-2.79822031 6.16161616-6.25s-2.7586495-6.25-6.16161616-6.25c-3.40296664 0-6.16161616 2.79822031-6.16161616 6.25s2.75864952 6.25 6.16161616 6.25zm3.08080806 3.125h-6.16161614c-3.40296664 0-6.16161616 2.7982203-6.16161616 6.25v9.375c0 1.7258898 1.37932476 3.125 3.08080808 3.125v12.5c0 1.7258898 1.37932476 3.125 3.08080808 3.125h6.16161614c1.7014833 0 3.0808081-1.3991102 3.0808081-3.125v-9.4130859l-4.8484217-4.6416016c-.83861059-.8170375-1.31262432-1.9455347-1.31262432-3.125s.47401373-2.3079625 1.31262432-3.125l6.944334-6.6484375c.1588541-.1513672.3629577-.2255859.5401041-.3486328-.9271129-2.3806924-3.1933221-3.9458171-5.7168245-3.9482422zm34.8888889-3.125c3.4029667 0 6.1616162-2.79822031 6.1616162-6.25s-2.7586495-6.25-6.1616162-6.25c-3.4029666 0-6.1616161 2.79822031-6.1616161 6.25s2.7586495 6.25 6.1616161 6.25zm3.0808081 3.125h-6.1616162c-2.5232635.0022666-4.7894044 1.566957-5.7168245 3.9472656.1771465.1240235.385101.1953125.541067.350586l6.9433712 6.6464843c.8386105.8170375 1.3126243 1.9455348 1.3126243 3.125 0 1.1794653-.4740138 2.3079626-1.3126243 3.125l-4.8484217 4.6435547v9.4121094c0 1.7258898 1.3793247 3.125 3.080808 3.125h6.1616162c1.7014833 0 3.0808081-1.3991102 3.0808081-3.125v-12.5c1.7014833 0 3.0808081-1.3991102 3.0808081-3.125v-9.375c0-3.4517797-2.7586496-6.25-6.1616162-6.25z" fill="url(#d)" filter="url(#e)"/><path d="m43.4366501 29.88585-6.9071964 6.5594414c-.3335233.3199105-.8247078.4084608-1.2478775.2249663s-.6965015-.6035538-.6944124-1.0671804v-3.4825652h-12.2590286v3.4825652c.0020891.4636266-.2712427.8836859-.6944124 1.0671804s-.9143542.0949442-1.2478775-.2249663l-6.9071964-6.5594414c-.4595701-.4658992-.4595701-1.2175655 0-1.6834647l6.9071964-6.5594414c.3335233-.3199105.8247078-.4084608 1.2478775-.2249663s.6965015.6035538.6944124 1.0671804v3.4690744h12.2590286v-3.4690744c-.0020891-.4636266.2712427-.8836859.6944124-1.0671804s.9143542-.0949442 1.2478775.2249663l6.9071964 6.5623323c.4576723.4655582.4576723 1.2150156 0 1.6805738z" fill="url(#f)" filter="url(#g)"/><path d="m9.24242424 12.5c3.40296666 0 6.16161616-2.79822031 6.16161616-6.25s-2.7586495-6.25-6.16161616-6.25c-3.40296664 0-6.16161616 2.79822031-6.16161616 6.25s2.75864952 6.25 6.16161616 6.25zm3.08080806 3.125h-6.16161614c-3.40296664 0-6.16161616 2.7982203-6.16161616 6.25v9.375c0 1.7258898 1.37932476 3.125 3.08080808 3.125v12.5c0 1.7258898 1.37932476 3.125 3.08080808 3.125h6.16161614c1.7014833 0 3.0808081-1.3991102 3.0808081-3.125v-9.4130859l-4.8484217-4.6416016c-.83861059-.8170375-1.31262432-1.9455347-1.31262432-3.125s.47401373-2.3079625 1.31262432-3.125l6.944334-6.6484375c.1588541-.1513672.3629577-.2255859.5401041-.3486328-.9271129-2.3806924-3.1933221-3.9458171-5.7168245-3.9482422zm34.8888889-3.125c3.4029667 0 6.1616162-2.79822031 6.1616162-6.25s-2.7586495-6.25-6.1616162-6.25c-3.4029666 0-6.1616161 2.79822031-6.1616161 6.25s2.7586495 6.25 6.1616161 6.25zm3.0808081 3.125h-6.1616162c-2.5232635.0022666-4.7894044 1.566957-5.7168245 3.9472656.1771465.1240235.385101.1953125.541067.350586l6.9433712 6.6464843c.8386105.8170375 1.3126243 1.9455348 1.3126243 3.125 0 1.1794653-.4740138 2.3079626-1.3126243 3.125l-4.8484217 4.6435547v9.4121094c0 1.7258898 1.3793247 3.125 3.080808 3.125h6.1616162c1.7014833 0 3.0808081-1.3991102 3.0808081-3.125v-12.5c1.7014833 0 3.0808081-1.3991102 3.0808081-3.125v-9.375c0-3.4517797-2.7586496-6.25-6.1616162-6.25z" fill="url(#d)"/><path d="m43.4366501 29.88585-6.9071964 6.5594414c-.3335233.3199105-.8247078.4084608-1.2478775.2249663s-.6965015-.6035538-.6944124-1.0671804v-3.4825652h-12.2590286v3.4825652c.0020891.4636266-.2712427.8836859-.6944124 1.0671804s-.9143542.0949442-1.2478775-.2249663l-6.9071964-6.5594414c-.4595701-.4658992-.4595701-1.2175655 0-1.6834647l6.9071964-6.5594414c.3335233-.3199105.8247078-.4084608 1.2478775-.2249663s.6965015.6035538.6944124 1.0671804v3.4690744h12.2590286v-3.4690744c-.0020891-.4636266.2712427-.8836859.6944124-1.0671804s.9143542-.0949442 1.2478775.2249663l6.9071964 6.5623323c.4576723.4655582.4576723 1.2150156 0 1.6805738z" fill="url(#f)"/></g></g></g></svg>

<svg xmlns="http://www.w3.org/2000/svg" xmlns:xlink="http://www.w3.org/1999/xlink" width="80" height="80" viewBox="0 0 80 80">
  <defs>
    <path id="benefit-sai-a" d="M0.5,13.84 C0.5,6.473 6.473,0.5 13.84,0.5 L62.16,0.5 C69.527,0.5 75.5,6.473 75.5,13.84 L75.5,62.16 C75.5,69.527 69.527,75.5 62.16,75.5 L13.84,75.5 C6.473,75.5 0.5,69.527 0.5,62.16 L0.5,13.84 Z"/>
    <linearGradient id="benefit-sai-c" x1="50%" x2="50%" y1="0%" y2="100%">
      <stop offset="0%" stop-color="#3F6ABC"/>
      <stop offset="100%" stop-color="#1851BE"/>
    </linearGradient>
    <filter id="benefit-sai-d" width="110.6%" height="110.6%" x="-5.3%" y="-5.3%" filterUnits="objectBoundingBox">
      <feGaussianBlur in="SourceGraphic" stdDeviation="1.05"/>
    </filter>
    <radialGradient id="benefit-sai-e" cx="55.954%" cy="0%" r="116.607%" fx="55.954%" fy="0%" gradientTransform="matrix(0 1 -.88567 0 .56 -.56)">
      <stop offset="0%" stop-color="#FFF"/>
      <stop offset="100%" stop-color="#AEC3EB"/>
    </radialGradient>
    <filter id="benefit-sai-f" width="106.9%" height="107.8%" x="-3.5%" y="-3.9%" filterUnits="objectBoundingBox">
      <feGaussianBlur in="SourceGraphic" stdDeviation=".65"/>
    </filter>
    <radialGradient id="benefit-sai-g" cx="55.954%" cy="0%" r="315.185%" fx="55.954%" fy="0%" gradientTransform="matrix(0 1 -.50386 0 .56 -.56)">
      <stop offset="0%" stop-color="#FFF"/>
      <stop offset="100%" stop-color="#AEC3EB"/>
    </radialGradient>
    <filter id="benefit-sai-h" width="112.7%" height="125.3%" x="-6.4%" y="-12.6%" filterUnits="objectBoundingBox">
      <feGaussianBlur in="SourceGraphic" stdDeviation=".65"/>
    </filter>
  </defs>
  <g fill="none" fill-rule="evenodd" transform="translate(2 2)">
    <mask id="benefit-sai-b" fill="#fff">
      <use xlink:href="#benefit-sai-a"/>
    </mask>
    <path d="M0.5,13.84 C0.5,6.473 6.473,0.5 13.84,0.5 L62.16,0.5 C69.527,0.5 75.5,6.473 75.5,13.84 L75.5,62.16 C75.5,69.527 69.527,75.5 62.16,75.5 L13.84,75.5 C6.473,75.5 0.5,69.527 0.5,62.16 L0.5,13.84 Z" mask="url(#benefit-sai-b)"/>
    <path d="M0.5,13.84 C0.5,6.473 6.473,0.5 13.84,0.5 L62.16,0.5 C69.527,0.5 75.5,6.473 75.5,13.84 L75.5,62.16 C75.5,69.527 69.527,75.5 62.16,75.5 L13.84,75.5 C6.473,75.5 0.5,69.527 0.5,62.16 L0.5,13.84 Z"/>
    <path d="M0.5,13.84 C0.5,6.473 6.473,0.5 13.84,0.5 L62.16,0.5 C69.527,0.5 75.5,6.473 75.5,13.84 L75.5,62.16 C75.5,69.527 69.527,75.5 62.16,75.5 L13.84,75.5 C6.473,75.5 0.5,69.527 0.5,62.16 L0.5,13.84 Z"/>
    <path fill="url(#benefit-sai-c)" fill-rule="nonzero" stroke="#FFF" stroke-opacity=".01" stroke-width="1.68" d="M0.5,13.84 C0.5,6.473 6.473,0.5 13.84,0.5 L62.16,0.5 C69.527,0.5 75.5,6.473 75.5,13.84 L75.5,62.16 C75.5,69.527 69.527,75.5 62.16,75.5 L13.84,75.5 C6.473,75.5 0.5,69.527 0.5,62.16 L0.5,13.84 Z" filter="url(#benefit-sai-d)"/>
    <path fill="url(#benefit-sai-c)" fill-rule="nonzero" stroke="#FFF" stroke-opacity=".01" stroke-width="1.68" d="M0.5,13.84 C0.5,6.473 6.473,0.5 13.84,0.5 L62.16,0.5 C69.527,0.5 75.5,6.473 75.5,13.84 L75.5,62.16 C75.5,69.527 69.527,75.5 62.16,75.5 L13.84,75.5 C6.473,75.5 0.5,69.527 0.5,62.16 L0.5,13.84 Z"/>
    <g fill-rule="nonzero" transform="translate(10 13)">
      <path fill="url(#benefit-sai-e)" d="M9.24242424,12.5 C12.6453909,12.5 15.4040404,9.70177969 15.4040404,6.25 C15.4040404,2.79822031 12.6453909,0 9.24242424,0 C5.8394576,0 3.08080808,2.79822031 3.08080808,6.25 C3.08080808,9.70177969 5.8394576,12.5 9.24242424,12.5 Z M12.3232323,15.625 L6.16161616,15.625 C2.75864952,15.625 2.87769808e-13,18.4232203 2.87769808e-13,21.875 L2.87769808e-13,31.25 C2.87769808e-13,32.9758898 1.37932476,34.375 3.08080808,34.375 L3.08080808,46.875 C3.08080808,48.6008898 4.46013284,50 6.16161616,50 L12.3232323,50 C14.0247156,50 15.4040404,48.6008898 15.4040404,46.875 L15.4040404,37.4619141 L10.5556187,32.8203125 C9.71700811,32.003275 9.24299438,30.8747778 9.24299438,29.6953125 C9.24299438,28.5158472 9.71700811,27.38735 10.5556187,26.5703125 L17.4999527,19.921875 C17.6588068,19.7705078 17.8629104,19.6962891 18.0400568,19.5732422 C17.1129439,17.1925498 14.8467347,15.6274251 12.3232323,15.625 Z M47.2121212,12.5 C50.6150879,12.5 53.3737374,9.70177969 53.3737374,6.25 C53.3737374,2.79822031 50.6150879,0 47.2121212,0 C43.8091546,0 41.0505051,2.79822031 41.0505051,6.25 C41.0505051,9.70177969 43.8091546,12.5 47.2121212,12.5 Z M50.2929293,15.625 L44.1313131,15.625 C41.6080496,15.6272666 39.3419087,17.191957 38.4144886,19.5722656 C38.5916351,19.6962891 38.7995896,19.7675781 38.9555556,19.9228516 L45.8989268,26.5693359 C46.7375373,27.3863734 47.2115511,28.5148707 47.2115511,29.6943359 C47.2115511,30.8738012 46.7375373,32.0022985 45.8989268,32.8193359 L41.0505051,37.4628906 L41.0505051,46.875 C41.0505051,48.6008898 42.4298298,50 44.1313131,50 L50.2929293,50 C51.9944126,50 53.3737374,48.6008898 53.3737374,46.875 L53.3737374,34.375 C55.0752207,34.375 56.4545455,32.9758898 56.4545455,31.25 L56.4545455,21.875 C56.4545455,18.4232203 53.6958959,15.625 50.2929293,15.625 Z" filter="url(#benefit-sai-f)"/>
      <path fill="url(#benefit-sai-g)" d="M43.4366501,29.88585 L36.5294537,36.4452914 C36.1959304,36.7652019 35.7047459,36.8537522 35.2815762,36.6702577 C34.8584065,36.4867632 34.5850747,36.0667039 34.5871638,35.6030773 L34.5871638,32.1205121 L22.3281352,32.1205121 L22.3281352,35.6030773 C22.3302243,36.0667039 22.0568925,36.4867632 21.6337228,36.6702577 C21.2105531,36.8537522 20.7193686,36.7652019 20.3858453,36.4452914 L13.4786489,29.88585 C13.0190788,29.4199508 13.0190788,28.6682845 13.4786489,28.2023853 L20.3858453,21.6429439 C20.7193686,21.3230334 21.2105531,21.2344831 21.6337228,21.4179776 C22.0568925,21.6014721 22.3302243,22.0215314 22.3281352,22.485158 L22.3281352,25.9542324 L34.5871638,25.9542324 L34.5871638,22.485158 C34.5850747,22.0215314 34.8584065,21.6014721 35.2815762,21.4179776 C35.7047459,21.2344831 36.1959304,21.3230334 36.5294537,21.6429439 L43.4366501,28.2052762 C43.8943224,28.6708344 43.8943224,29.4202918 43.4366501,29.88585 Z" filter="url(#benefit-sai-h)"/>
      <path fill="url(#benefit-sai-e)" d="M9.24242424,12.5 C12.6453909,12.5 15.4040404,9.70177969 15.4040404,6.25 C15.4040404,2.79822031 12.6453909,0 9.24242424,0 C5.8394576,0 3.08080808,2.79822031 3.08080808,6.25 C3.08080808,9.70177969 5.8394576,12.5 9.24242424,12.5 Z M12.3232323,15.625 L6.16161616,15.625 C2.75864952,15.625 2.87769808e-13,18.4232203 2.87769808e-13,21.875 L2.87769808e-13,31.25 C2.87769808e-13,32.9758898 1.37932476,34.375 3.08080808,34.375 L3.08080808,46.875 C3.08080808,48.6008898 4.46013284,50 6.16161616,50 L12.3232323,50 C14.0247156,50 15.4040404,48.6008898 15.4040404,46.875 L15.4040404,37.4619141 L10.5556187,32.8203125 C9.71700811,32.003275 9.24299438,30.8747778 9.24299438,29.6953125 C9.24299438,28.5158472 9.71700811,27.38735 10.5556187,26.5703125 L17.4999527,19.921875 C17.6588068,19.7705078 17.8629104,19.6962891 18.0400568,19.5732422 C17.1129439,17.1925498 14.8467347,15.6274251 12.3232323,15.625 Z M47.2121212,12.5 C50.6150879,12.5 53.3737374,9.70177969 53.3737374,6.25 C53.3737374,2.79822031 50.6150879,0 47.2121212,0 C43.8091546,0 41.0505051,2.79822031 41.0505051,6.25 C41.0505051,9.70177969 43.8091546,12.5 47.2121212,12.5 Z M50.2929293,15.625 L44.1313131,15.625 C41.6080496,15.6272666 39.3419087,17.191957 38.4144886,19.5722656 C38.5916351,19.6962891 38.7995896,19.7675781 38.9555556,19.9228516 L45.8989268,26.5693359 C46.7375373,27.3863734 47.2115511,28.5148707 47.2115511,29.6943359 C47.2115511,30.8738012 46.7375373,32.0022985 45.8989268,32.8193359 L41.0505051,37.4628906 L41.0505051,46.875 C41.0505051,48.6008898 42.4298298,50 44.1313131,50 L50.2929293,50 C51.9944126,50 53.3737374,48.6008898 53.3737374,46.875 L53.3737374,34.375 C55.0752207,34.375 56.4545455,32.9758898 56.4545455,31.25 L56.4545455,21.875 C56.4545455,18.4232203 53.6958959,15.625 50.2929293,15.625 Z"/>
      <path fill="url(#benefit-sai-g)" d="M43.4366501,29.88585 L36.5294537,36.4452914 C36.1959304,36.7652019 35.7047459,36.8537522 35.2815762,36.6702577 C34.8584065,36.4867632 34.5850747,36.0667039 34.5871638,35.6030773 L34.5871638,32.1205121 L22.3281352,32.1205121 L22.3281352,35.6030773 C22.3302243,36.0667039 22.0568925,36.4867632 21.6337228,36.6702577 C21.2105531,36.8537522 20.7193686,36.7652019 20.3858453,36.4452914 L13.4786489,29.88585 C13.0190788,29.4199508 13.0190788,28.6682845 13.4786489,28.2023853 L20.3858453,21.6429439 C20.7193686,21.3230334 21.2105531,21.2344831 21.6337228,21.4179776 C22.0568925,21.6014721 22.3302243,22.0215314 22.3281352,22.485158 L22.3281352,25.9542324 L34.5871638,25.9542324 L34.5871638,22.485158 C34.5850747,22.0215314 34.8584065,21.6014721 35.2815762,21.4179776 C35.7047459,21.2344831 36.1959304,21.3230334 36.5294537,21.6429439 L43.4366501,28.2052762 C43.8943224,28.6708344 43.8943224,29.4202918 43.4366501,29.88585 Z"/>
    </g>
  </g>
</svg>
